svg/fluentui-system-icons/ic_fluent_document_copy_20_regular.svg

<svg width="20" height="20" viewBox="0 0 20 20" fill="none" xmlns="http://www.w3.org/2000/svg">
<path d="M6 4C6 2.89543 6.89543 2 8 2H11.5858C11.9836 2 12.3651 2.15804 12.6464 2.43934L16.5607 6.35355C16.842 6.63486 17 7.01639 17 7.41421V14C17 15.1046 16.1046 16 15 16H8C6.89543 16 6 15.1046 6 14V4ZM8 3C7.44772 3 7 3.44772 7 4V14C7 14.5523 7.44772 15 8 15H15C15.5523 15 16 14.5523 16 14V8H12.5C11.6716 8 11 7.32843 11 6.5V3H8ZM12 3.20711V6.5C12 6.77614 12.2239 7 12.5 7H15.7929L12 3.20711ZM4 5C4 4.44772 4.44772 4 5 4V14C5 15.6569 6.34315 17 8 17L15 17C15 17.5523 14.5523 18 14 18H7.93939C5.76373 18 4 16.2363 4 14.0606V5Z" fill="#212121"/>
</svg>

<svg xmlns="http://www.w3.org/2000/svg" width="20" height="20"><path d="M6 4a2 2 0 0 1 2-2h3.586a1.5 1.5 0 0 1 1.06.44l3.915 3.914A1.5 1.5 0 0 1 17 7.414V14a2 2 0 0 1-2 2H8a2 2 0 0 1-2-2V4Zm2-1a1 1 0 0 0-1 1v10a1 1 0 0 0 1 1h7a1 1 0 0 0 1-1V8h-3.5A1.5 1.5 0 0 1 11 6.5V3H8Zm4 .207V6.5a.5.5 0 0 0 .5.5h3.293L12 3.207ZM4 5a1 1 0 0 1 1-1v10a3 3 0 0 0 3 3h7a1 1 0 0 1-1 1H7.94A3.94 3.94 0 0 1 4 14.06V5Z"/></svg>
